actions/22/view-filter.svg

<?xml version="1.0" encoding="UTF-8" standalone="no"?>
<!-- Created with Inkscape (http://www.inkscape.org/) -->

<svg
   xmlns:dc="http://purl.org/dc/elements/1.1/"
   xmlns:cc="http://creativecommons.org/ns#"
   xmlns:rdf="http://www.w3.org/1999/02/22-rdf-syntax-ns#"
   xmlns:svg="http://www.w3.org/2000/svg"
   xmlns="http://www.w3.org/2000/svg"
   xmlns:sodipodi="http://sodipodi.sourceforge.net/DTD/sodipodi-0.dtd"
   xmlns:inkscape="http://www.inkscape.org/namespaces/inkscape"
   width="22"
   height="22"
   id="svg13094"
   version="1.1"
   inkscape:version="0.48.3.1 r9886"
   sodipodi:docname="view-filter.svg">
  <sodipodi:namedview
     id="base"
     pagecolor="#ffffff"
     bordercolor="#666666"
     borderopacity="1.0"
     inkscape:pageopacity="0.0"
     inkscape:pageshadow="2"
     inkscape:zoom="32.000002"
     inkscape:cx="14.771058"
     inkscape:cy="11.050742"
     inkscape:document-units="px"
     inkscape:current-layer="svg13094"
     showgrid="true"
     inkscape:snap-bbox="true"
     inkscape:bbox-paths="true"
     inkscape:bbox-nodes="true"
     inkscape:snap-bbox-edge-midpoints="true"
     inkscape:snap-bbox-midpoints="true"
     inkscape:object-paths="true"
     inkscape:snap-intersection-paths="true"
     inkscape:object-nodes="true"
     inkscape:snap-smooth-nodes="true"
     inkscape:snap-midpoints="true"
     inkscape:snap-object-midpoints="true"
     inkscape:snap-center="true"
     showguides="true"
     inkscape:guide-bbox="true"
     inkscape:window-width="1920"
     inkscape:window-height="1027"
     inkscape:window-x="-10"
     inkscape:window-y="31"
     inkscape:window-maximized="1"
     inkscape:snap-global="true"
     fit-margin-top="0"
     fit-margin-left="0"
     fit-margin-right="0"
     fit-margin-bottom="0"
     showborder="true"
     inkscape:showpageshadow="false">
    <inkscape:grid
       type="xygrid"
       id="grid3075"
       empspacing="5"
       visible="true"
       enabled="true"
       snapvisiblegridlinesonly="true"
       originx="1.6362304e-08px"
       originy="18px" />
  </sodipodi:namedview>
  <defs
     id="defs13096" />
  <metadata
     id="metadata13099">
    <rdf:RDF>
      <cc:Work
         rdf:about="">
        <dc:format>image/svg+xml</dc:format>
        <dc:type
           rdf:resource="http://purl.org/dc/dcmitype/StillImage" />
        <dc:title />
      </cc:Work>
    </rdf:RDF>
  </metadata>
  <path
     sodipodi:nodetypes="ssccccccsssssss"
     inkscape:connector-curvature="0"
     id="path2983"
     d="M 11,3 C 6.581722,3 3,4.5670033 3,6.5 3,7.5684521 4.1187298,8.514262 5.84375,9.15625 L 10,14 l 0,5 2,0 0,-5 4.15625,-4.84375 C 17.88127,8.514262 19,7.5684521 19,6.5 19,4.5670033 15.418278,3 11,3 z m 0,1 c 2.761424,0 5,0.8954305 5,2 0,1.1045695 -2.238576,2 -5,2 C 8.2385759,8 6,7.1045695 6,6 6,4.8954305 8.2385759,4 11,4 z"
     style="color:#000000;fill:#27303a;fill-opacity:0.753280819999999968;fill-rule:nonzero;stroke:none;stroke-width:2;marker:none;visibility:visible;display:inline;overflow:visible;enable-background:accumulate" />
  <path
     style="font-size:medium;font-style:normal;font-variant:normal;font-weight:normal;font-stretch:normal;text-indent:0;text-align:start;text-decoration:none;line-height:normal;letter-spacing:normal;word-spacing:normal;text-transform:none;direction:ltr;block-progression:tb;writing-mode:lr-tb;text-anchor:start;baseline-shift:baseline;color:#000000;fill:#f1f3f5;fill-opacity:0.90288714000000003;fill-rule:nonzero;stroke:none;stroke-width:2;marker:none;visibility:visible;display:inline;overflow:visible;enable-background:accumulate;font-family:Sans;-inkscape-font-specification:Sans"
     d="m 11,1.8125 c -2.3510045,0 -4.4719378,0.4017853 -6.125,1.125 C 4.0484689,3.2991073 3.3379165,3.736703 2.78125,4.3125 2.2245835,4.888297 1.8125,5.6461633 1.8125,6.5 c 0,0.9530487 0.4977867,1.776429 1.15625,2.375 0.5515606,0.501392 1.2913125,0.861514 2.0625,1.1875 L 8.40625,14 9,14 l 0,6 1,0 0,-1 0,-2 0,-3 L 5.84375,9.15625 C 4.1187298,8.514262 3,7.5684521 3,6.5 3,4.5670033 6.581722,3 11,3 c 4.418278,0 8,1.5670033 8,3.5 0,1.0684521 -1.11873,2.014262 -2.84375,2.65625 L 12,14 l 0,3 0,2 0,1 1,0 0,-6 0.59375,0 3.375,-3.9375 C 17.739937,9.736514 18.479689,9.376392 19.03125,8.875 19.689713,8.276429 20.1875,7.4530488 20.1875,6.5 20.1875,5.6461633 19.775416,4.888297 19.21875,4.3125 18.662084,3.736703 17.951531,3.2991073 17.125,2.9375 15.471938,2.2142853 13.351005,1.8125 11,1.8125 z M 11,4 C 8.2385759,4 6,4.8954305 6,6 6,7.1045695 8.2385759,8 11,8 13.761424,8 16,7.1045695 16,6 16,4.8954305 13.761424,4 11,4 z"
     id="path3002"
     inkscape:connector-curvature="0" />
</svg>

<?xml version="1.0" encoding="UTF-8"?>
<svg id="a" width="22" height="22" version="1.1" xmlns="http://www.w3.org/2000/svg" xmlns:cc="http://creativecommons.org/ns#" xmlns:dc="http://purl.org/dc/elements/1.1/" xmlns:rdf="http://www.w3.org/1999/02/22-rdf-syntax-ns#">
	<metadata id="d">
		<rdf:RDF>
			<cc:Work rdf:about="">
				<dc:format>image/svg+xml</dc:format>
				<dc:type rdf:resource="http://purl.org/dc/dcmitype/StillImage"/>
				<dc:title/>
			</cc:Work>
		</rdf:RDF>
	</metadata>
	<defs id="f">
		<style id="current-color-scheme" type="text/css">.ColorScheme-Text {color:#090d11;}.ColorScheme-Background{color:#ffffff;}</style>
	</defs>
	<path id="c" d="m11 3c-4.4183 0-8 1.567-8 3.5 0 1.0685 1.1187 2.0143 2.8438 2.6562l4.1562 4.8438v5h2v-5l4.1562-4.8438c1.725-0.64199 2.8438-1.5878 2.8438-2.6562 0-1.933-3.5817-3.5-8-3.5zm0 1c2.7614 0 5 0.89543 5 2s-2.2386 2-5 2c-2.7614 0-5-0.89543-5-2s2.2386-2 5-2z" style="fill-opacity:.75;fill:currentColor" class="ColorScheme-Text"/>
	<path id="b" d="m11 2c-2.3148 0-4.4031 0.3956-6.0308 1.1077-0.81382 0.35604-1.5134 0.78691-2.0615 1.3538-0.5481 0.56694-0.95385 1.3131-0.95385 2.1538 0 0.93839 0.49013 1.7491 1.1385 2.3385 0.54308 0.49368 1.2714 0.84826 2.0308 1.1692l3.3231 3.8769h0.55385v6h1v-1-2-3l-4.1562-4.8438c-1.725-0.64199-2.8438-1.5878-2.8438-2.6562 0-1.933 3.5817-3.5 8-3.5s8 1.567 8 3.5c0 1.0685-1.1187 2.0143-2.8438 2.6562l-4.1562 4.8438v3 2 1h1v-6h0.55385l3.3231-3.8769c0.75932-0.32097 1.4877-0.67555 2.0308-1.1692 0.64833-0.58936 1.1385-1.4001 1.1385-2.3385 0-0.8407-0.40574-1.5869-0.95385-2.1538-0.5481-0.56694-1.2477-0.9978-2.0615-1.3538-1.6276-0.71209-3.7159-1.1077-6.0308-1.1077zm0 2c-2.7614 0-5 0.89543-5 2s2.2386 2 5 2c2.7614 0 5-0.89543 5-2s-2.2386-2-5-2z" style="fill-opacity:.5;fill:currentColor" class="ColorScheme-Background"/>
</svg>
